X: 3322
M: C
L: 1/8
K: D
(FG) !segno![|\
cdef gedc |[1 dAFA DEFG :|\
[2 d2d2d2 |: (de) |\
f2f2 f2(ef) |
gfed cBAG |\
fdfd fdfa |[1 gfed cBAG |\
[2 bgec dcBA | FAdf gedc |\
dAFA DEFG !segno!|]


